public/svgs/light/audio-description-slash.svg

<svg xmlns="http://www.w3.org/2000/svg" viewBox="0 0 640 512"><!-- Font Awesome Pro 6.0.0-alpha2 by @fontawesome - https://fontawesome.com License - https://fontawesome.com/license (Commercial License) --><path d="M493.872 311.711C505.171 295.967 511.999 276.816 511.999 256C511.999 203.062 468.937 160 415.999 160H351.999C343.155 160 335.999 167.156 335.999 176V187.07L367.999 212.334V192H415.999C451.296 192 479.999 220.703 479.999 256C479.999 269.336 475.88 281.715 468.878 291.977L493.872 311.711ZM543.999 64C561.644 64 575.999 78.355 575.999 96V376.549L607.999 401.812V96C607.999 60.652 579.345 32 543.999 32H139.583L180.114 64H543.999ZM180.431 227.354L129.687 328.844C125.734 336.75 128.937 346.359 136.843 350.312C144.765 354.219 154.343 351.047 158.312 343.156L177.89 304H270.109L289.687 343.156C292.499 348.766 298.14 352 304.015 352C306.421 352 308.859 351.453 311.155 350.312C316.335 347.723 319.22 342.66 319.673 337.285L236.982 272H193.89L206.085 247.607L180.431 227.354ZM95.999 448C78.355 448 63.999 433.645 63.999 416V135.432L31.999 110.166V416C31.999 451.346 60.653 480 95.999 480H500.439L459.907 448H95.999ZM633.921 483.436L25.921 3.42C18.984 -2.033 8.921 -0.83 3.437 6.061C-2.032 12.998 -0.845 23.061 6.077 28.545L614.077 508.562C617.015 510.875 620.515 512 623.984 512C628.718 512 633.405 509.906 636.562 505.922C642.03 498.984 640.843 488.92 633.921 483.436Z"/></svg>

<svg xmlns="http://www.w3.org/2000/svg" viewBox="0 0 640 512"><!--! Font Awesome Pro 6.5.1 by @fontawesome - https://fontawesome.com License - https://fontawesome.com/license (Commercial License) Copyright 2023 Fonticons, Inc. --><path d="M25.9 3.4C19-2 8.9-.8 3.4 6.1S-.8 23.1 6.1 28.6l608 480c6.9 5.5 17 4.3 22.5-2.6s4.3-17-2.6-22.5L25.9 3.4zM459.9 448H96c-17.7 0-32-14.3-32-32V135.4L32 110.2V416c0 35.3 28.7 64 64 64H500.4l-40.5-32zM544 32H139.6l40.5 32H544c17.7 0 32 14.3 32 32V376.6l32 25.3V96c0-35.3-28.7-64-64-64zM512 256c0-53-43-96-96-96H352c-8.8 0-16 7.2-16 16v11.1l32 25.3V192h48c35.3 0 64 28.7 64 64c0 13.4-4.1 25.8-11.1 36l25.2 19.9c11.3-15.7 17.9-35 17.9-55.9zM129.7 328.8c-4 7.9-.7 17.5 7.2 21.5s17.5 .7 21.5-7.2L177.9 304h92.2l19.6 39.2c4 7.9 13.6 11.1 21.5 7.2c5.1-2.6 8.3-7.5 8.8-12.8L237 272H193.9l12.2-24.4-25.7-20.3L129.7 328.8z"/></svg>
